src/assets/filled/Grid8.svg

<svg width="24" height="24" viewBox="0 0 24 24"  xmlns="http://www.w3.org/2000/svg">
<path d="M22 7.81027V11.2503H16.75V2.03027C20.05 2.23027 22 4.36027 22 7.81027Z" />
<path d="M22 12.75V16.19C22 19.64 20.05 21.77 16.75 21.97V12.75H22Z" />
<path d="M7.25 12.75V21.97C3.95 21.77 2 19.64 2 16.19V12.75H7.25Z" />
<path d="M7.25 2.03027V11.2503H2V7.81027C2 4.36027 3.95 2.23027 7.25 2.03027Z" />
<path d="M15.25 2H8.75V11.25H15.25V2Z" />
<path d="M15.25 12.75H8.75V22H15.25V12.75Z" />
</svg>

<?xml version="1.0" encoding="UTF-8"?>
<svg width="24" height="24" viewBox="0 0 24 24" xmlns="http://www.w3.org/2000/svg">
 <path d="m22 7.8103v3.44h-5.25v-9.22c3.3 0.2 5.25 2.33 5.25 5.78z"/>
 <path d="m22 12.75v3.44c0 3.45-1.95 5.58-5.25 5.78v-9.22h5.25z"/>
 <path d="M7.25 12.75V21.97C3.95 21.77 2 19.64 2 16.19V12.75H7.25Z"/>
 <path d="m7.25 2.0303v9.22h-5.25v-3.44c0-3.45 1.95-5.58 5.25-5.78z"/>
 <path d="M15.25 2H8.75V11.25H15.25V2Z"/>
 <path d="m15.25 12.75h-6.5v9.25h6.5v-9.25z"/>
</svg>
